outputs/icons/communication/end_call_round.svg

<svg xmlns="http://www.w3.org/2000/svg" width="1200" height="1200" fill="none"><g clip-path="url(#a)"><path fill="#000" d="m225.375 824.75 100.978-79.5c24.234-19 38.371-48 38.371-78.5v-130c152.476-49 317.571-49.5 470.551 0v130.5c0 30.5 14.14 59.5 38.375 78.5l100.47 79c40.39 31.5 97.945 28.5 134.3-7.5l61.595-61c40.39-40 40.39-106.5-2.525-144-323.63-283-811.349-283-1134.981 0-42.915 37.5-42.915 104-2.524 144l61.596 61c35.847 36 93.403 39 133.794 7.5"/></g><defs><clipPath id="a"><path fill="#fff" d="M0 0h1200v1200H0z"/></clipPath></defs></svg>

<svg width="1200" height="1200" viewBox="0 0 1200 1200" fill="none" xmlns="http://www.w3.org/2000/svg"><g clip-path="url(#clip0_858_1995)"><path d="M225.375 824.75L326.353 745.25C350.587 726.25 364.724 697.25 364.724 666.75V536.75C517.2 487.75 682.295 487.25 835.275 536.75V667.25C835.275 697.75 849.415 726.75 873.65 745.75L974.12 824.75C1014.51 856.25 1072.065 853.25 1108.42 817.25L1170.015 756.25C1210.405 716.25 1210.405 649.75 1167.49 612.25C843.86 329.25 356.141 329.25 32.509 612.25C-10.406 649.75 -10.406 716.25 29.985 756.25L91.581 817.25C127.428 853.25 184.984 856.25 225.375 824.75Z" fill="black"/></g><defs><clipPath id="clip0_858_1995"><path width="24" fill="white" d="M0 0H1200V1200H0V0z"/></clipPath></defs></svg>
